X:1
T:055 - Hosana Nas Alturas
T:Letra: Joseph Jones (1848-1927)
T:Música: Harrison Millard (1828-1895)
M:3/4
L:1/8
Q:1/4=100
K:Abmaj
V:1
"Ab"e2 cA "Db"FA| ("Ab"E2A2) (AB)| cc e2 ("Eb7"B3/c/) | "Ab"A4z2 | "Eb7"B2 =AB cB| "Ab"_A2e2 z2 | "Eb7"B2 =AB cB| "Ab"_A2e2 z2 | "Db"f2 ff df | ("Ab"e2c2) ("Ddim"AB)| "Ab/Eb"cc c2 "Eb7"B2 | "Ab"A4z || E | "Eb"B2B2zE| "Ab"c2c2zc| "Eb/Bb"e3=d "Bb"c=d| "Eb"e2e2 zE | "Eb7"B2B2zE| "Ab"c2c2zc | "Eb/Bb"e=d cB "Bb7"c=d| "Eb"e2 e2 z2 | "Ab"e2 cA "Db"FA| ("Ab"E2A2) (AB)| c2 e2 ("Eb7"B3/c/) | "Ab"A4z2 | "Eb7"B2 =AB cB| "Ab"_A2e2 z2 | "Eb7"B2 =AB cB| "Ab"_A2e2 z2 | "Db"f2 ff df | ("Ab"e2c2) ("Ddim"AB)| "Ab/Eb"cc c2 "Eb7"B2 | "Ab"A4z2 |]
w: 1.~Ben-di-too Rei que vem_ em_ no-me do Se_nhor,                A quem nós es-pe-ra-mos,                Ao qual nós a-do-ra-mos! Ben-di-too Rei que vem_ em_ no-me do Se-nhor! Ho-sa-na! Ho-sa-na! Ho-sa-na nas al-tu-ras! Ho-sa-na! Ho-sa-na! Ho-sa_na_ nas al-tu-ras! Os seus glo-rio-sos fei-tos ce-le-brai com fer_vor!                Em to-doo va-le so-a                No-va pra nós tão bo-a! Ben-di-too Rei que vem_ em_ no-me do Se-nhor!
w: 2.~Ben-di-too Rei que vem_ em_ no-me do Se_nhor!                Oh, ren-dam-lhe lou-vo-res,                A Cris-toem seus ful-go-res! Ben-di-too Rei que vem_ em_ no-me do Se-nhor! Ho-sa-na! Ho-sa-na! Ho-sa-na nas al-tu-ras! Ho-sa-na! Ho-sa-na! Ho-sa_na_ nas al-tu-ras! Oh, vin-de to-dos a Je-sus, o Rei, Sal-va_dor!                To-dos com a-le-gri-a,                Vo-zes em har-mo-ni-a!
w: 3.~Ben-di-too Rei que vem_ em_ no-me do Se_nhor!                  Sim, vem tão ma-jes-to-so,                  Je-sus, o Rei bon-do-so! Ben-di-too Rei que vem_ em_ no-me do Se-nhor! Ho-sa-na! Ho-sa-na! Ho-sa-na nas al-tu-ras! Ho-sa-na! Ho-sa-na! Ho-sa_na_ nas al-tu-ras! O Sal-va-dor seu po-vo cha-maa Si com a_mor!                  Ve-nham os pe-que-ni-nos!                  Ve-nham já os me-ni-nos!
W: 
W:
W: 1. Bendito o Rei que vem em nome do Senhor,
W: A quem nós esperamos, Ao qual nós adoramos!
W: Bendito o Rei que vem em nome do Senhor!
W: Hosana! Hosana! Hosana nas alturas!
W: Hosana! Hosana! Hosana nas alturas!
W: Os seus gloriosos feitos celebrai com fervor!
W: Em todo o vale soa Nova pra nós tão boa!
W: Bendito o Rei que vem em nome do Senhor!
W: 
W: 2. Bendito o Rei que vem em nome do Senhor!
W: Oh, rendam-lhe louvores, A Cristo em seus fulgores!
W: Bendito o Rei que vem em nome do Senhor!
W: Hosana! Hosana! Hosana nas alturas!
W: Hosana! Hosana! Hosana nas alturas!
W: Oh, vinde todos a Jesus, o Rei, Salvador!
W: Todos com alegria, Vozes em harmonia!
W: Bendito o Rei que vem em nome do Senhor!
W: 
W:
W:
W: 3. Bendito o Rei que vem em nome do Senhor!
W: Sim, vem tão majestoso, Jesus, o Rei bondoso!
W: Bendito o Rei que vem em nome do Senhor!
W: Hosana! Hosana! Hosana nas alturas!
W: Hosana! Hosana! Hosana nas alturas!
W: O Salvador seu povo chama a Si com amor!
W: Venham os pequeninos! Venham já os meninos!
W: Bendito o Rei que vem em nome do Senhor!
W:         
W: 





%wordsfont Times-Roman 13.0
%vocalfont Times-Roman 13.0
